X:1
T:Navez point veu
T:Navez point veu
T:Jean Richafort
T:Source : Trium vocum cantiones---Nürnberg---J.Petreius---1541. Editor : André Vierendeels (02/08/15).
T:Notes : Original clefs : C3, C5, F4 Editorial accidentals above the staff Original note values have been halved Square bracket indicates ligature "assotée = devenue sotte par amour"
C:Jean Richafort
%%score [ 1 2 3 ]
L:1/8
Q:1/4=80
M:2/2
K:C
V:1 treble-8 nm="Tenor 1" snm="T 1"
V:2 treble-8 nm="Tenor 2" snm="T 2"
V:3 bass nm="Bassus" snm="B"
V:1
 z8 | z4 B2 Bc | d2 d2 d2 d2 | c4 B4- | B4 z4 | z4 e2 ef | g2 e2 f2 d2 | c2 e2 e2 d2- | dc c4 B2 | %9
w: |Na- vez point|veu mal as- se-|né- e,|_|cel- le de|quoy on par- le|tant, de quoy on|_ _ par- le|
 c8- | c8 | z4 B2 Bc | d2 d2 d2 d2 | c4 B4- | B4 z4 | z4 e2 ef | g2 e2 f2 d2 | c2 e4 d2- | %18
w: tant,|_|sa mer- re|la- voyt en- voy-|é- e|_|gar- der les|bre- bi- et- tes|aux _ _|
 dc c4 B2 | c8 | z4 z2 e2 | e2 e2 B3 c | d2 B2 A3 B | cd e4 dc | B3 c d2 B2 | %25
w: _ _ _ _|champs,|et|son a- my qui|va de- vant _|_ _ _ _ _|luy _ _ de-|
"^-natural" A3 B cd e2- | ed c4 B2 | A2 G2 c4 | z8 | z8 | z8 | z4 g2 ga | g3 f e2 d2 | %33
w: man- * * * *||* * dant,||||"nen- ny" dit|el- le "mon a-|
 c2 B2 c2 d2 | e4 d4 | z4 g2 ga | g3 f e2 d2 | c4 e2 ef | e3 d c2 B2 | c8 | z4 z2 e2 | e2 e2 B3 c | %42
w: my, ie no- *|se- roy",|"nen- ny" dit|el- le "mon a-|my", "nen- ny "dit|el- le "mon a-|my,|ie|no- se- roy' en|
 d2 B2 A4 | z2 c2 B2 B2 | c8- | c8 | z4 A2 AA | A2 A2 B2 c2 | d2 e4 d2- | dc c3 B/A/cB | c8- | c8 | %52
w: bon- ne foy,|en bon- ne|foy,|_|mays frin- guez|moy sur la rou-|sé- * *||e,|_|
 z4 G2 GG | A2 A2 B2 c2 | d2 e4 d2- | dc c4 B2 | c8 |] %57
w: mays frin- guez|moy sur la rou-|sé- * *||e".|
V:2
 z8 | E2 EF G2 G2 | G2 G2 F4 | E8 | z4 B2 Bc | d2 B2 c2 A2 | G2 A3 G G2 | A2 GF EFGE | FEDC D4 | %9
w: |Na- vez point veu man|as- se- né-|e,|cel- le de|quoy on par- le|tant, cel- le de|quoy on _ par- * * *|* * * * le|
 C8 | z8 | E2 EF G2 G2 | G2 G2 F4 | E8 | z4 B2 Bc | d2 B2 c2 A2 | G2 A3 G G2 | A2 GF EFGE | %18
w: tant,||sa mer- re la- voyt|en- voy- é-|e-|gar- der les|bre- bi- et- *|* * * tes|aux _ _ _ _ _ _|
 FEDC D4 | C8 | z2 A2 A2 A2 | E3 F G2 E2 | D3 E FG A2- | A2 GF E3 F | G2 E2 D3 E | F2 D2 C2 c2 | %26
w: _ _ _ _ _|champs,|et son a-|my qui va de-|vant _ _ _ _|_ _ _ _ _|* luy de- *|* * * man-|
 B2 A4 GF | E8 | z2 G4 F2 | G3 A B2 B2 | A2 c2 B3 G | A4 G4 | z4 G2 GA | G3 F E2 D2 | %34
w: |dant:|"se- rez|vous mon as- so-|té- * * *|* e?"|"nen- ny" dit|el- le "mon a-|
 C2 c3 B/A/ B2 | c4 z4 | c2 cd c3 B | A2 A2 G2 c2 | B3 A G2 F2 | G4 G4 | z2 A2 A2 A2 | E3 F G2 E2 | %42
w: my, mon _ _ a-|my,|mon a- my" dit el-|le, "mon a- my,|ie _ no- se-|roy- e,|en bon- ne|foy _ _ en|
 D2 D2 F2 F2 | E2 C2 D2 D2 | C4 z2 E2 | EE E2 E2 F2 | G2 A3 GFE | F2 GF G2 z2 | G3 F ED G2 | %49
w: bon- ne foy, en|bon- * * ne|foy, mays|frin- guez moy sur la|rou- sé- * * *|* * * e,|sur _ _ _ la|
 FEDC D4 | C4 z2 E2 | EE E2 E2 F2 | G2 A3 GFE | F2 GF G2 z2 | G3 F ED G2 | FEDC D4 | C8 |] %57
w: rou- * * * sé-|e, mays|frin- guez moy sur la|rou- sé- * * *|* * * e,|sur- * rou- * sé-||e".|
V:3
 A,,2 A,,B,, C,2 C,2 | C,2 C,2 G,,3 A,, | B,,A,,B,,C, D,4 | A,,4 z4 | E,2 E,F, G,2 E,2 | %5
w: Na- vez poit veu mal|as- se- né- *||e,|cel- le de quoy on|
 F,2 D,2 C,3 D, | E,2 C,2 D,2 B,,2 | A,,3 B,, C,2 G,,2 | A,,4 G,,4 | C,4 z4 | A,,2 A,,B,, C,2 C,2 | %11
w: par- le tant, _|_ cel- le de|quoy _ _ on|par- le|tant,|sa mer- re la- voyt|
 C,2 C,2 G,,3 A,, | B,,A,,B,,C, D,4 | A,,4 z4 | E,2 E,F, G,2 E,2 | F,2 D,2 C,3 D, | %16
w: en- voy- é- *||e|gar- der les bre- bi-|et- tes aux _|
 E,2 C,2 D,2 B,,2 | A,,3 B,, C,2 G,,2 | A,,4 G,,4 |"^b" C,4 z2 E,2 | D,2 D,2 A,,3 B,, | %21
w: _ _ _ _|||champs, et|son a- my _|
 C,2 A,,2 G,,3 A,, | B,,C, D,4 C,B,, | A,,3 B,, C,2 A,,2 | G,,3 A,, _B,,2 G,,2 | F,,2 F,2 E,2 C,2 | %26
w: _ qui va _|_ _ _ _ _|de- * * *|vant _ _ luy|de- man- * *|
 E,2 F,2 D,4 | C,4 z2 C,2- | C,2 B,,2 C,2 D,2 | E,2 E,2 D,2 G,2 | F,2 A,3 G, G,2- | %31
w: |dant: "se-|* rez vous mon|as- so- té- *||
"^#" G,2 F,2 G,2 z2 | G,2 G,A, G,3 F, | E,2 D,2 C,2 B,,2 | C,4 G,,4 | C,8- | C,8 | z4 E,2 E,A, | %38
w: * * e?"|"nen- ny" dit el- le|"mon a- my, mon|a- *|my,|_|nen- ny"- dit|
 G,3 F, E,2 D,2 | C,4 z2 E,2 | D,2 D,2 A,,3 B,, | C,2 A,,2 G,,4- | G,,4 z2 D,2 | C,2 A,,2 G,,4 | %44
w: el- le "mon a-|my, ie|no- se- roy'- en|bon- ne foy,|_ en|bon- * ne|
 A,,3 B,, C,4 | A,,2 A,,A,, A,,2 A,,2 | B,,2 C,2 D,4- | D,4 G,,2 A,,2 | B,,2 C,3 B,, G,,2 | %49
w: foy, _ _|mays frin- guez moy sur|la rou- sé-|* e, sur|la rou- * *|
 A,,4 G,,4 | A,,3 B,, C,4 | A,,2 A,,A,, A,,2 A,,2 | B,,2 C,2 D,4- | D,4 G,,2 A,,2 | %54
w: sé- *||e, mays frin- guez moy|sur la rou-|* * sé-|
 B,,2 C,3 B,, G,,2 | A,,4 G,,4 | C,8 |] %57
w: e, sur la rou-|sé- *|e."|

